package/converter/svg/duotone/memo.svg

<svg xmlns="http://www.w3.org/2000/svg" viewBox="0 0 384 512"><!-- Font Awesome Pro 6.0.0-alpha2 by @fontawesome - https://fontawesome.com License - https://fontawesome.com/license (Commercial License) --><defs><style>.fa-secondary{opacity:.4}</style></defs><path d="M320 0H64C28.654 0 0 28.652 0 64V448C0 483.346 28.654 512 64 512H320C355.346 512 384 483.346 384 448V64C384 28.652 355.346 0 320 0ZM208 352H80C71.164 352 64 344.836 64 336S71.164 320 80 320H208C216.838 320 224 327.164 224 336S216.838 352 208 352ZM304 256H80C71.164 256 64 248.836 64 240S71.164 224 80 224H304C312.838 224 320 231.164 320 240S312.838 256 304 256ZM304 160H80C71.164 160 64 152.836 64 144S71.164 128 80 128H304C312.838 128 320 135.164 320 144S312.838 160 304 160Z" class="fa-secondary"/><path d="M208 320H80C71.164 320 64 327.164 64 336S71.164 352 80 352H208C216.838 352 224 344.836 224 336S216.838 320 208 320ZM304 224H80C71.164 224 64 231.164 64 240S71.164 256 80 256H304C312.838 256 320 248.836 320 240S312.838 224 304 224ZM304 128H80C71.164 128 64 135.164 64 144S71.164 160 80 160H304C312.838 160 320 152.836 320 144S312.838 128 304 128Z" class="fa-primary"/></svg>

<svg xmlns="http://www.w3.org/2000/svg" viewBox="0 0 384 512"><!--! Font Awesome Pro 6.6.0 by @fontawesome - https://fontawesome.com License - https://fontawesome.com/license (Commercial License) Copyright 2024 Fonticons, Inc. --><defs><style>.fa-secondary{opacity:.4}</style></defs><path class="fa-secondary" d="M0 64C0 28.7 28.7 0 64 0L320 0c35.3 0 64 28.7 64 64l0 384c0 35.3-28.7 64-64 64L64 512c-35.3 0-64-28.7-64-64L0 64zm64 80c0 8.8 7.2 16 16 16l224 0c8.8 0 16-7.2 16-16s-7.2-16-16-16L80 128c-8.8 0-16 7.2-16 16zm0 96c0 8.8 7.2 16 16 16l224 0c8.8 0 16-7.2 16-16s-7.2-16-16-16L80 224c-8.8 0-16 7.2-16 16zm0 96c0 8.8 7.2 16 16 16l128 0c8.8 0 16-7.2 16-16s-7.2-16-16-16L80 320c-8.8 0-16 7.2-16 16z"/><path class="fa-primary" d="M80 128c-8.8 0-16 7.2-16 16s7.2 16 16 16l224 0c8.8 0 16-7.2 16-16s-7.2-16-16-16L80 128zm0 96c-8.8 0-16 7.2-16 16s7.2 16 16 16l224 0c8.8 0 16-7.2 16-16s-7.2-16-16-16L80 224zm0 96c-8.8 0-16 7.2-16 16s7.2 16 16 16l128 0c8.8 0 16-7.2 16-16s-7.2-16-16-16L80 320z"/></svg>
